public/assets/logo.svg

<svg width="53" height="33" viewBox="0 0 53 33" fill="none" xmlns="http://www.w3.org/2000/svg">
<path d="M18.9107 1.62479C19.0814 0.997942 18.8365 0.446759 18.2289 0.325245C17.4427 0.168004 16.1132 0 14.0214 0C11.9169 0 10.4605 0.17004 9.56133 0.328092C8.87123 0.449391 8.30563 1.01295 8.13067 1.65516L0.0527404 31.303C-0.105883 31.8852 0.0941656 32.4085 0.641239 32.5551C1.41699 32.763 2.7922 33 5.0301 33C7.26374 33 8.7328 32.7639 9.59275 32.5563C10.1997 32.4098 10.6615 31.9015 10.815 31.3379L18.9107 1.62479Z" fill="#D93F0C"/>
<path d="M52.8794 1.62479C53.0502 0.997942 52.8052 0.446759 52.1977 0.325245C51.4114 0.168004 50.0819 0 47.9901 0C45.8857 0 44.4293 0.17004 43.5301 0.328092C42.84 0.449391 42.2744 1.01295 42.0994 1.65516L34.0215 31.303C33.8629 31.8852 34.0629 32.4085 34.6099 32.5551C35.3857 32.763 36.761 33 38.9988 33C41.2325 33 42.7015 32.7639 43.5615 32.5563C44.1684 32.4098 44.6302 31.9015 44.7837 31.3379L52.8794 1.62479Z" fill="#D93F0C"/>
<path d="M36.0591 1.62479C36.2299 0.997942 35.9849 0.446759 35.3773 0.325245C34.5911 0.168004 33.2616 0 31.1698 0C29.0653 0 27.609 0.17004 26.7098 0.328092C26.0197 0.449391 25.4541 1.01295 25.2791 1.65516L17.2012 31.303C17.0426 31.8852 17.2426 32.4085 17.7896 32.5551C18.5654 32.763 19.9407 33 22.1785 33C24.4121 33 25.8812 32.7639 26.7412 32.5563C27.3481 32.4098 27.8099 31.9015 27.9634 31.3379L36.0591 1.62479Z" fill="#D93F0C"/>
<path d="M8.77182 1.62479C8.60107 0.997942 8.84603 0.446759 9.45368 0.325245C10.2398 0.168004 11.5693 0 13.6612 0C15.7656 0 17.222 0.17004 18.1212 0.328092C18.8113 0.449391 19.3769 1.01295 19.5518 1.65516L27.6298 31.303C27.7884 31.8852 27.5884 32.4085 27.0413 32.5551C26.2655 32.763 24.8904 33 22.6524 33C20.4188 33 18.9497 32.7639 18.0898 32.5563C17.4829 32.4098 17.0211 31.9015 16.8675 31.3379L8.77182 1.62479Z" fill="#F35826"/>
<path d="M25.5921 1.62479C25.4214 0.997942 25.6663 0.446759 26.274 0.325245C27.0601 0.168004 28.3896 0 30.4815 0C32.5859 0 34.0423 0.17004 34.9415 0.328092C35.6316 0.449391 36.1972 1.01295 36.3722 1.65516L44.4501 31.303C44.6087 31.8852 44.4087 32.4085 43.8616 32.5551C43.0859 32.763 41.7107 33 39.4728 33C37.2391 33 35.77 32.7639 34.9101 32.5563C34.3032 32.4098 33.8415 31.9015 33.6878 31.3379L25.5921 1.62479Z" fill="#F35826"/>
</svg>

<svg width="53" height="33" fill="none" xmlns="http://www.w3.org/2000/svg"><path d="M18.91 1.625c.171-.627-.073-1.178-.681-1.3C17.443.168 16.113 0 14.02 0c-2.104 0-3.56.17-4.46.328-.69.121-1.255.685-1.43 1.327L.053 31.303c-.159.582.041 1.105.588 1.252.776.208 2.151.445 4.39.445 2.233 0 3.702-.236 4.562-.444.607-.146 1.069-.654 1.222-1.218l8.096-29.713zM52.88 1.625c.17-.627-.075-1.178-.682-1.3C51.41.168 50.082 0 47.99 0c-2.104 0-3.56.17-4.46.328-.69.121-1.256.685-1.43 1.327l-8.078 29.648c-.16.582.04 1.105.588 1.252.776.208 2.151.445 4.389.445 2.233 0 3.703-.236 4.563-.444.606-.146 1.068-.654 1.222-1.218l8.095-29.713zM36.06 1.625c.17-.627-.075-1.178-.683-1.3C34.591.168 33.262 0 31.17 0c-2.105 0-3.561.17-4.46.328-.69.121-1.256.685-1.43 1.327L17.2 31.303c-.158.582.042 1.105.589 1.252.775.208 2.15.445 4.389.445 2.233 0 3.702-.236 4.562-.444.607-.146 1.069-.654 1.222-1.218L36.06 1.625z" fill="#D93F0C"/><path d="M8.772 1.625c-.17-.627.074-1.178.682-1.3C10.24.168 11.569 0 13.66 0c2.105 0 3.561.17 4.46.328.69.121 1.256.685 1.43 1.327l8.079 29.648c.158.582-.042 1.105-.589 1.252-.776.208-2.15.445-4.389.445-2.233 0-3.702-.236-4.562-.444-.607-.146-1.069-.654-1.223-1.218L8.772 1.625zM25.592 1.625c-.17-.627.074-1.178.682-1.3C27.06.168 28.39 0 30.481 0c2.105 0 3.561.17 4.46.328.69.121 1.256.685 1.431 1.327l8.078 29.648c.159.582-.041 1.105-.588 1.252-.776.208-2.151.445-4.39.445-2.233 0-3.702-.236-4.562-.444-.607-.146-1.068-.654-1.222-1.218L25.592 1.625z" fill="#F35826"/></svg>
